coreui/free/cil-exit-to-app.svg

<svg xmlns="http://www.w3.org/2000/svg" viewBox="0 0 512 512">
  <path fill="var(--ci-primary-color, currentColor)" d="M472,16H40A24.028,24.028,0,0,0,16,40V200H48V48H464V464H48V304H16V472a24.028,24.028,0,0,0,24,24H472a24.028,24.028,0,0,0,24-24V40A24.028,24.028,0,0,0,472,16Z" class="ci-primary"/>
  <polygon fill="var(--ci-primary-color, currentColor)" points="209.377 363.306 232.004 385.933 366.627 251.31 232.004 116.687 209.377 139.313 305.374 235.311 16 235.311 16 267.311 305.372 267.311 209.377 363.306" class="ci-primary"/>
</svg>

<svg viewBox="0 0 512 512" xmlns="http://www.w3.org/2000/svg"><g><path d="M472 16H40v0c-13.25.01-23.99 10.75-24 24v160h32V48h416v416H48V304H16v168l0-.001c.01 13.24 10.75 23.98 24 24h432 -.001c13.24-.02 23.98-10.76 24-24v-432 0c-.02-13.25-10.76-23.99-24-24Z"/><path d="M209.377 363.3l22.62 22.62 134.62-134.63L231.98 116.66l-22.63 22.62 95.99 95.99 -289.374 0 0 32 289.372 0L209.35 363.27Z"/></g></svg>
